**harmony	**harte	**kern	**silbe	**rhyme	**timestamp	**phrase
*M4/4	*M4/4	*ICvox	*	*	*	*
*	*	*VRlead	*	*	*	*
*	*	*Hstimme	*	*	*	*
*d:	*d:	*d:	*	*	*d:	*d:
*	*	*M4/4	*	*	*	*
*	*	*clefC3	*	*	*	*
1r;	1r	r;	.	.	0	.
=1	=1	=1	=1	=1	=1	=1
*>Letter>A	*>Letter>A	*>Letter>A	*>Letter>A	*>Letter>A	*>Letter>A	*>Letter>A
*>Label>Intro	*>Label>Intro	*>Label>Intro	*>Label>Intro	*>Label>Intro	*>Label>Intro	*>Label>Intro
1Dmm	D:min7	1r	.	.	0.232	newline
=2	=2	=2	=2	=2	=2	=2
1Dmm	D:min7	2r	.	.	2.413	.
.	.	8r	.	.	.	.
.	.	8f	Hah!	.	.	.
.	.	4r	.	.	.	.
=3	=3	=3	=3	=3	=3	=3
1Dmm	D:min7	1r	.	.	4.594	.
=4	=4	=4	=4	=4	=4	=4
1Dmm	D:min7	2r	.	.	6.776	.
.	.	4r	.	.	.	.
.	.	8cc	I	.	.	.
.	.	8cc	don't	.	.	.
=5	=5	=5	=5	=5	=5	=5
*>Letter>B	*>Letter>B	*>Letter>B	*>Letter>B	*>Letter>B	*>Letter>B	*>Letter>B
*>Label>Verse	*>Label>Verse	*>Label>Verse	*>Label>Verse	*>Label>Verse	*>Label>Verse	*>Label>Verse
1Dmm	D:min7	8a-	care	.	8.957	newline
.	.	16g	_	.	.	.
.	.	16f	_	.	.	.
.	.	4r	.	.	.	.
.	.	4r	.	.	.	.
.	.	8r	.	.	.	.
.	.	8g	hah	.	.	.
=6	=6	=6	=6	=6	=6	=6
1Dmm	D:min7	8r	.	.	11.113	.
.	.	8c	Uh	.	.	.
.	.	4r	.	.	.	.
.	.	8r	.	.	.	.
.	.	8c	A-	.	.	.
.	.	8d	-bout	.	.	.
.	.	8c	your	.	.	.
=7	=7	=7	=7	=7	=7	=7
1Dmm	D:min7	16f	past	A	13.269	.
.	.	[8.c	_	.	.	.
.	.	8.c]	_	.	.	.
.	.	16r	.	.	.	.
.	.	2r	.	.	.	.
=8	=8	=8	=8	=8	=8	=8
1Dmm	D:min7	2r	.	.	15.426	.
.	.	4r	.	.	.	.
.	.	8cc	I	.	.	.
.	.	[8cc	just	.	.	.
=9	=9	=9	=9	=9	=9	=9
1Dmm	D:min7	8cc]	want	.	17.582	newline
.	.	8gq	_	.	.	.
.	.	8a-	_	.	.	.
.	.	16g	_	.	.	.
.	.	[8.f	_	.	.	.
.	.	8f]	_	.	.	.
.	.	16g	_	.	.	.
.	.	16a	_	.	.	.
.	.	4r	.	.	.	.
=10	=10	=10	=10	=10	=10	=10
1Dmm	D:min7	8r	.	.	19.728	.
.	.	16a	Heaugh	.	.	.
.	.	16f	_	.	.	.
.	.	4r	.	.	.	.
.	.	8r	.	.	.	.
.	.	8d	Our	.	.	.
.	.	8~e	love	.	.	.
.	.	8c	to	.	.	.
=11	=11	=11	=11	=11	=11	=11
1Dmm	D:min7	8B	last	A	21.875	.
.	.	4A	_	.	.	.
.	.	8r	.	.	.	.
.	.	8r	.	.	.	.
.	.	8a-	Uh	.	.	.
.	.	4r	.	.	.	.
=12	=12	=12	=12	=12	=12	=12
1Dmm	D:min7	2r	.	.	24.022	.
.	.	4r	.	.	.	.
.	.	8cc	I	.	.	.
.	.	8cc	don't	.	.	.
=13	=13	=13	=13	=13	=13	=13
.	.	8gq	_	.	.	.
1Dmm	D:min7	4a-	care	.	26.168	newline
.	.	16g	_	.	.	.
.	.	16f	_	.	.	.
.	.	8r	.	.	.	.
.	.	8r	.	.	.	.
.	.	8fq	_	.	.	.
.	.	[8g	dar	.	.	.
.	.	16g]	_	.	.	.
.	.	16a	ling	.	.	.
.	.	8r	.	.	.	.
=14	=14	=14	=14	=14	=14	=14
1Dmm	D:min7	2r	.	.	28.313	.
.	.	8r	.	.	.	.
.	.	8c	a-	.	.	.
.	.	8d	-bout	.	.	.
.	.	8c	your	.	.	.
=15	=15	=15	=15	=15	=15	=15
1Dmm	D:min7	8r	.	.	30.459	.
.	.	4f	faults	B	.	.
.	.	8r	.	.	.	.
.	.	8r	.	.	.	.
.	.	8ff	Hah	.	.	.
.	.	8r	.	.	.	.
.	.	8d	Uh	.	.	.
=16	=16	=16	=16	=16	=16	=16
1Dmm	D:min7	2r	.	.	32.604	.
.	.	4r	.	.	.	.
.	.	8cc	I	.	.	.
.	.	[8cc	just	.	.	.
=17	=17	=17	=17	=17	=17	=17
1Dmm	D:min7	8cc]	_	.	34.749	newline
.	.	8gq	_	.	.	.
.	.	8a-	want	.	.	.
.	.	12g	_	.	.	.
.	.	12f	_	.	.	.
.	.	12g	_	.	.	.
.	.	8a	_	.	.	.
.	.	8r	.	.	.	.
.	.	4r	.	.	.	.
=18	=18	=18	=18	=18	=18	=18
1Dmm	D:min7	2r	.	.	36.886	.
.	.	8r	.	.	.	.
.	.	8c	to	.	.	.
.	.	8c	sa-	.	.	.
.	.	8c	-tis-	.	.	.
=19	=19	=19	=19	=19	=19	=19
1Dmm	D:min7	8d	-fy	.	39.023	.
.	.	8d	your	.	.	.
.	.	4~e	pulse	B	.	.
.	.	2r	.	.	.	.
=20	=20	=20	=20	=20	=20	=20
1Dmm	D:min7	8r	.	.	41.16	.
.	.	4.cc	Oh	.	.	.
.	.	4.dd	_	.	.	.
.	.	8r	.	.	.	.
=21	=21	=21	=21	=21	=21	=21
*>Letter>C	*>Letter>C	*>Letter>C	*>Letter>C	*>Letter>C	*>Letter>C	*>Letter>C
*>Label>Chorus	*>Label>Chorus	*>Label>Chorus	*>Label>Chorus	*>Label>Chorus	*>Label>Chorus	*>Label>Chorus
1CMm	C:7	1r	.	.	43.297	newline
=22	=22	=22	=22	=22	=22	=22
1FMm	F:7	4r	.	.	45.45	.
.	.	8r	.	.	.	.
.	.	8cc	When	.	.	.
.	.	8b-	you	.	.	.
.	.	8cc	kiss	C	.	.
.	.	8r	.	.	.	.
.	.	8b-q	_	.	.	.
.	.	[8cc	me	.	.	.
=23	=23	=23	=23	=23	=23	=23
1CMm	C:7	8cc]	_	.	47.603	.
.	.	16b-	_	.	.	.
.	.	16g	_	.	.	.
.	.	16f	_	.	.	.
.	.	16e-	_	.	.	.
.	.	8r	.	.	.	.
.	.	2r	.	.	.	.
=24	=24	=24	=24	=24	=24	=24
1FMm	F:7	2r	.	.	49.756	.
.	.	8.r	.	.	.	.
.	.	[16cc	When	.	.	.
.	.	16cc]	_	.	.	.
.	.	8b-	you	.	.	.
.	.	[16cc	miss	C	.	.
=25	=25	=25	=25	=25	=25	=25
1CMm	C:7	8cc]	_	.	51.91	newline
.	.	16cc	me	.	.	.
.	.	16dd	_	.	.	.
.	.	4r	.	.	.	.
.	.	2r	.	.	.	.
=26	=26	=26	=26	=26	=26	=26
1FMm	F:7	2r	.	.	54.049	.
.	.	4r	.	.	.	.
.	.	8r	.	.	.	.
.	.	8b-q	_	.	.	.
.	.	[8cc	Hold	.	.	.
=27	=27	=27	=27	=27	=27	=27
1CMm	C:7	8cc]	_	.	56.189	.
.	.	8b-	my	.	.	.
.	.	8g	hand	D	.	.
.	.	16f	_	.	.	.
.	.	[16e-	_	.	.	.
.	.	16e-]	_	.	.	.
.	.	16f	_	.	.	.
.	.	8g	_	.	.	.
.	.	4r	.	.	.	.
=28	=28	=28	=28	=28	=28	=28
1FMm	F:7	2r	.	.	58.328	.
.	.	8r	.	.	.	.
.	.	8cc	Make	.	.	.
.	.	16b-	me	.	.	.
.	.	8.cc	un-	.	.	.
=29	=29	=29	=29	=29	=29	=29
.	.	8b-q	_	.	.	.
1CMm	C:7	2cc	-der-	.	60.468	newline
.	.	8b-	-stand	D	.	.
.	.	8b-q	_	.	.	.
.	.	[8f	_	.	.	.
.	.	8f]	_	.	.	.
.	.	16f	_	.	.	.
.	.	16e-	_	.	.	.
=30	=30	=30	=30	=30	=30	=30
1FMm	F:7	8c	_	.	62.629	.
.	.	8r	.	.	.	.
.	.	4r	.	.	.	.
.	.	2r	.	.	.	.
=31	=31	=31	=31	=31	=31	=31
1N	N	2r	.	.	64.789	newline
.	.	8r	.	.	.	.
.	.	8b-	I	.	.	.
.	.	8cc	break	.	.	.
.	.	8cc	out!	.	.	.
=32	=32	=32	=32	=32	=32	=32
1GMm	G:7	1r	.	.	66.834	.
=33	=33	=33	=33	=33	=33	=33
1N	N	4r	.	.	68.878	.
.	.	8r	.	.	.	.
.	.	16cc	In	.	.	.
.	.	16b-	a	.	.	.
.	.	8r	.	.	.	.
.	.	4.cc	cold	.	.	.
=34	=34	=34	=34	=34	=34	=34
1GMm	G:9	8cc	sweat	.	70.923	.
.	.	8r	.	.	.	.
.	.	4r	.	.	.	.
.	.	2r	.	.	.	.
=35	=35	=35	=35	=35	=35	=35
*>Letter>A	*>Letter>A	*>Letter>A	*>Letter>A	*>Letter>A	*>Letter>A	*>Letter>A
*>Label>Trans	*>Label>Trans	*>Label>Trans	*>Label>Trans	*>Label>Trans	*>Label>Trans	*>Label>Trans
1DMm	D:maj6(b7,11)	2r	.	.	72.967	newline
.	.	8r	.	.	.	.
.	.	8cc	Ho	.	.	.
.	.	8f	_	.	.	.
.	.	8r	.	.	.	.
=36	=36	=36	=36	=36	=36	=36
1DMm	D:maj6(b7,11)	2r	.	.	75.126	.
.	.	8r	.	.	.	.
.	.	8cc	Uh!	.	.	.
.	.	4r	.	.	.	.
=37	=37	=37	=37	=37	=37	=37
1DMm	D:maj6(b7,11)	1r	.	.	77.285	.
=38	=38	=38	=38	=38	=38	=38
1DMm	D:maj6(b7,11)	2r	.	.	79.444	.
.	.	8r	.	.	.	.
.	.	8dd	Oh	.	.	.
.	.	4r	.	.	.	.
=39	=39	=39	=39	=39	=39	=39
*>Letter>B	*>Letter>B	*>Letter>B	*>Letter>B	*>Letter>B	*>Letter>B	*>Letter>B
*>Label>Verse	*>Label>Verse	*>Label>Verse	*>Label>Verse	*>Label>Verse	*>Label>Verse	*>Label>Verse
1Dmm	D:min7	2r	.	.	81.603	newline
.	.	4r	.	.	.	.
.	.	8cc	I	.	.	.
.	.	8cc	don't	.	.	.
=40	=40	=40	=40	=40	=40	=40
.	.	8gq	_	.	.	.
1Dmm	D:min7	8a-	care	.	83.769	.
.	.	16g	_	.	.	.
.	.	16f	_	.	.	.
.	.	4r	.	.	.	.
.	.	2r	.	.	.	.
=41	=41	=41	=41	=41	=41	=41
1Dmm	D:min7	2r	.	.	85.934	.
.	.	8r	.	.	.	.
.	.	8c	a-	.	.	.
.	.	8d	-bout	.	.	.
.	.	[8d	your	.	.	.
=42	=42	=42	=42	=42	=42	=42
1Dmm	D:min7	8d]	_	.	88.1	.
.	.	4f	wants	E	.	.
.	.	8r	.	.	.	.
.	.	2r	.	.	.	.
=43	=43	=43	=43	=43	=43	=43
1Dmm	D:min7	2r	.	.	90.266	newline
.	.	4r	.	.	.	.
.	.	8cc	I	.	.	.
.	.	8cc	just	.	.	.
=44	=44	=44	=44	=44	=44	=44
1Dmm	D:min7	4a	w-	.	92.403	.
.	.	16cc	-wan-	.	.	.
.	.	16dd	-na	.	.	.
.	.	8r	.	.	.	.
.	.	8r	.	.	.	.
.	.	8e	hah!	.	.	.
.	.	4r	.	.	.	.
=45	=45	=45	=45	=45	=45	=45
1Dmm	D:min7	2r	.	.	94.54	.
.	.	8r	.	.	.	.
.	.	8d	Tell	.	.	.
.	.	8B	you	.	.	.
.	.	8d	'bout	.	.	.
=46	=46	=46	=46	=46	=46	=46
1Dmm	D:min7	8B	the	.	96.678	.
.	.	4f	do's	.	.	.
.	.	8B	and	.	.	.
.	.	8B	don'ts	E	.	.
.	.	8r	.	.	.	.
.	.	4r	.	.	.	.
=47	=47	=47	=47	=47	=47	=47
1Dmm	D:min7	2r	.	.	98.815	newline
.	.	4r	.	.	.	.
.	.	16cc	I	.	.	.
.	.	8.cc	don't	.	.	.
=48	=48	=48	=48	=48	=48	=48
.	.	8gq	_	.	.	.
1Dmm	D:min7	16a-	care	.	100.964	.
.	.	16g	_	.	.	.
.	.	8r	.	.	.	.
.	.	4r	.	.	.	.
.	.	2r	.	.	.	.
=49	=49	=49	=49	=49	=49	=49
1Dmm	D:min7	2r	.	.	103.114	.
.	.	8r	.	.	.	.
.	.	8c	a-	.	.	.
.	.	8d	-bout	.	.	.
.	.	8c	the	.	.	.
=50	=50	=50	=50	=50	=50	=50
1Dmm	D:min7	8f	way	.	105.263	.
.	.	8g	you	.	.	.
.	.	8a	treat	.	.	.
.	.	16a	me	.	.	.
.	.	16g	_	.	.	.
.	.	8f	_	.	.	.
.	.	8fq	_	.	.	.
.	.	[8g	dar	.	.	.
.	.	16g]	_	.	.	.
.	.	8a	ling	f	.	.
.	.	16r	.	.	.	.
=51	=51	=51	=51	=51	=51	=51
1Dmm	D:min7	2r	.	.	107.412	newline
.	.	4r	.	.	.	.
.	.	8cc	I	.	.	.
.	.	8cc	just	.	.	.
=52	=52	=52	=52	=52	=52	=52
.	.	8gq	_	.	.	.
1Dmm	D:min7	8a-	want	.	109.546	.
.	.	16g	_	.	.	.
.	.	16f	_	.	.	.
.	.	4r	.	.	.	.
.	.	8r	.	.	.	.
.	.	8c	hah!	.	.	.
.	.	4r	.	.	.	.
=53	=53	=53	=53	=53	=53	=53
1Dmm	D:min7	2r	.	.	111.68	.
.	.	4r	.	.	.	.
.	.	8B	To	.	.	.
.	.	8d	un-	.	.	.
=54	=54	=54	=54	=54	=54	=54
1Dmm	D:min7	8e	-der-	.	113.814	.
.	.	8f	-stand	.	.	.
.	.	8d	_	.	.	.
.	.	[8d	me,	.	.	.
.	.	8d]	_	.	.	.
.	.	[8~e	ho	.	.	.
.	.	16e]	_	.	.	.
.	.	8.B	ney	f	.	.
=55	=55	=55	=55	=55	=55	=55
*>Letter>C	*>Letter>C	*>Letter>C	*>Letter>C	*>Letter>C	*>Letter>C	*>Letter>C
*>Label>Chorus	*>Label>Chorus	*>Label>Chorus	*>Label>Chorus	*>Label>Chorus	*>Label>Chorus	*>Label>Chorus
1CMm	C:7	4r	.	.	115.947	newline
.	.	8r	.	.	.	.
.	.	8cc	Oh	.	.	.
.	.	4.dd	_	.	.	.
.	.	8r	.	.	.	.
=56	=56	=56	=56	=56	=56	=56
1FMm	F:7	1r	.	.	118.083	.
=57	=57	=57	=57	=57	=57	=57
1CMm	C:7	4r	.	.	120.218	.
.	.	8r	.	.	.	.
.	.	8cc	When	.	.	.
.	.	8b-	you	.	.	.
.	.	8cc	kiss	.	.	.
.	.	8r	.	.	.	.
.	.	8b-q	_	.	.	.
.	.	[8cc	me	.	.	.
=58	=58	=58	=58	=58	=58	=58
1FMm	F:7	2cc_	_	.	122.354	.
.	.	8cc]	_	.	.	.
.	.	16g-	_	.	.	.
.	.	16f	_	.	.	.
.	.	8f	_	.	.	.
.	.	8r	.	.	.	.
=59	=59	=59	=59	=59	=59	=59
1CMm	C:7	2r	.	.	124.49	newline
.	.	8r	.	.	.	.
.	.	8b-	When	.	.	.
.	.	8cc	you	.	.	.
.	.	[8ee-	miss	.	.	.
=60	=60	=60	=60	=60	=60	=60
1FMm	F:7	8ee-]	_	.	126.622	.
.	.	8b-	me	.	.	.
.	.	4r	.	.	.	.
.	.	2r	.	.	.	.
=61	=61	=61	=61	=61	=61	=61
1CMm	C:7	2r	.	.	128.754	.
.	.	16r	.	.	.	.
.	.	16~f	You	.	.	.
.	.	[8~dd	hold	.	.	.
.	.	16dd]	_	.	.	.
.	.	[8.cc	me	.	.	.
=62	=62	=62	=62	=62	=62	=62
1FMm	F:7	8cc]	_	.	130.886	.
.	.	16b-	tight	.	.	.
.	.	16g	_	.	.	.
.	.	16f	_	.	.	.
.	.	8e-	_	.	.	.
.	.	[16f	_	.	.	.
.	.	16f]	_	.	.	.
.	.	16e-	_	.	.	.
.	.	16g	_	.	.	.
.	.	[16g	_	.	.	.
.	.	16g]	_	.	.	.
.	.	8.r	.	.	.	.
=63	=63	=63	=63	=63	=63	=63
1CMm	C:7	2r	.	.	133.018	newline
.	.	8r	.	.	.	.
.	.	8cc	Make	.	.	.
.	.	16b-	ev	.	.	.
.	.	[8.cc	_	.	.	.
=64	=64	=64	=64	=64	=64	=64
1FMm	F:7	2cc]	_	.	135.146	.
.	.	8~gg	'ry-	.	.	.
.	.	8f	-thing	.	.	.
.	.	16g	_	.	.	.
.	.	16f	_	.	.	.
.	.	16e-	al	.	.	.
.	.	[16f	_	.	.	.
=65	=65	=65	=65	=65	=65	=65
1N	N	8f]	_	.	137.274	newline
.	.	16e-	right	.	.	.
.	.	16c	_	.	.	.
.	.	4r	.	.	.	.
.	.	8r	.	.	.	.
.	.	8~a	I	.	.	.
.	.	8~b-	break	.	.	.
.	.	8~b-	out!	.	.	.
=66	=66	=66	=66	=66	=66	=66
1GMm	G:7	1r	.	.	139.355	.
=67	=67	=67	=67	=67	=67	=67
1N	N	4r	.	.	141.435	.
.	.	8r	.	.	.	.
.	.	16cc	In	.	.	.
.	.	16b-	a	.	.	.
.	.	8r	.	.	.	.
.	.	4.cc	cold	.	.	.
=68	=68	=68	=68	=68	=68	=68
1GMm	G:9	8cc	sweat	.	143.516	.
.	.	8r	.	.	.	.
.	.	4r	.	.	.	.
.	.	4r	.	.	.	.
.	.	8r	.	.	.	.
.	.	8a	Hah!	.	.	.
=69	=69	=69	=69	=69	=69	=69
*>Letter>A	*>Letter>A	*>Letter>A	*>Letter>A	*>Letter>A	*>Letter>A	*>Letter>A
*>Label>Outro	*>Label>Outro	*>Label>Outro	*>Label>Outro	*>Label>Outro	*>Label>Outro	*>Label>Outro
1Dmm	D:min7	1r	.	.	145.597	newline
=70	=70	=70	=70	=70	=70	=70
1Dmm	D:min7	1r	.	.	147.767	.
=71	=71	=71	=71	=71	=71	=71
1Dmm	D:min7	1r	.	.	149.937	.
=72	=72	=72	=72	=72	=72	=72
1Dmm	D:min7	1r	.	.	152.107	.
=73	=73	=73	=73	=73	=73	=73
1Dmm	D:min7	1r	.	.	154.277	newline
=74	=74	=74	=74	=74	=74	=74
1Dmm	D:min7	1r	.	.	156.421	.
=75	=75	=75	=75	=75	=75	=75
1Dmm	D:min7	1r	.	.	158.564	.
=76	=76	=76	=76	=76	=76	=76
1Dmm	D:min7	1r	.	.	160.707	.
=77	=77	=77	=77	=77	=77	=77
*>Label>>Fadeout	*>Label>>Fadeout	*>Label>>Fadeout	*>Label>>Fadeout	*>Label>>Fadeout	*>Label>>Fadeout	*>Label>>Fadeout
1Dmm	D:min7	1r	.	.	162.85	newline
=78	=78	=78	=78	=78	=78	=78
1Dmm	D:min7	1r	.	.	164.717	.
=79	=79	=79	=79	=79	=79	=79
1Dmm	D:min7	1r	.	.	166.584	.
=80	=80	=80	=80	=80	=80	=80
1Dmm	D:min7	1r	.	.	168.451	.
1r;	1r	r;	.	.	170.318	.
1r;	1r	r;	.	.	171.938	.
*-	*-	*-	*-	*-	*-	*-
!!!BillboardChartDate: 1967/07/29
!!!BillboardPeak: 7
!!!BillboardWeeksOnChart: 12
!!!COC: James Brown
!!!ENC: Nathaniel Condit-Schultz
!!!EST: Awating manual error checking and editing.
!!!OTL: Cold Sweat - Part 1
!!!RDF**chordsym: original McGill chord annotation + (implied pitch class set, with bass pitch in first position)
!!!RDF**harmony: **recip + pitch class of root + harmonic quality
!!!RDF**leadinstrument: original McGill primary instrumentation annotation
!!!RDF**phrase: newline = linebreak in original McGill transcription
!!!RDF**timestamp: McGill audio timestamp in seconds
!!!RDT: 2017/01/12/
!!!SampleActualRank: 58
!!!SampleID#: 0079
!!!SampleTargetRank: 56
!!!MBID: 28ae852b-2e96-434e-bf13-1443ac07c115
